symbols/web/date_range/materialsymbolssharp/date_range_wght700_40px.svg

<svg xmlns="http://www.w3.org/2000/svg" height="40" width="40"><path d="M12.375 23.417q-.875 0-1.479-.625-.604-.625-.604-1.5t.604-1.48q.604-.604 1.479-.604.917 0 1.5.625t.583 1.5q0 .834-.583 1.459-.583.625-1.5.625Zm7.708 0q-.875 0-1.479-.625-.604-.625-.604-1.5t.604-1.48q.604-.604 1.479-.604.875 0 1.479.625.605.625.605 1.5 0 .834-.605 1.459-.604.625-1.479.625Zm7.5 0q-.875 0-1.479-.625-.604-.625-.604-1.5t.604-1.48q.604-.604 1.479-.604.875 0 1.479.625.605.625.605 1.5 0 .834-.605 1.459-.604.625-1.479.625Zm-23.75-18.5h6.334V2.125h3.666v2.792h12.334V2.125h3.708v2.792h6.333v32.916H3.833Zm4.375 28.541h23.584V16.375H8.208Zm0-19.833h23.584V9.292H8.208Zm0 0V9.292v4.333Z"/></svg>

<svg xmlns="http://www.w3.org/2000/svg" height="40" width="40"><path d="M12.375 23.417Q11.5 23.417 10.896 22.792Q10.292 22.167 10.292 21.292Q10.292 20.417 10.896 19.812Q11.5 19.208 12.375 19.208Q13.292 19.208 13.875 19.833Q14.458 20.458 14.458 21.333Q14.458 22.167 13.875 22.792Q13.292 23.417 12.375 23.417ZM20.083 23.417Q19.208 23.417 18.604 22.792Q18 22.167 18 21.292Q18 20.417 18.604 19.812Q19.208 19.208 20.083 19.208Q20.958 19.208 21.562 19.833Q22.167 20.458 22.167 21.333Q22.167 22.167 21.562 22.792Q20.958 23.417 20.083 23.417ZM27.583 23.417Q26.708 23.417 26.104 22.792Q25.5 22.167 25.5 21.292Q25.5 20.417 26.104 19.812Q26.708 19.208 27.583 19.208Q28.458 19.208 29.062 19.833Q29.667 20.458 29.667 21.333Q29.667 22.167 29.062 22.792Q28.458 23.417 27.583 23.417ZM3.833 4.917H10.167V2.125H13.833V4.917H26.167V2.125H29.875V4.917H36.208V37.833H3.833ZM8.208 33.458H31.792V16.375H8.208ZM8.208 13.625H31.792V9.292H8.208ZM8.208 13.625V9.292V13.625Z"/></svg>
